X: 1144
T: İmza Attım Mızrabımla Şarkılara
C: Gülen Ertek
O: Turkey
F: http://compmusic.upf.edu/node/140
N: ussak--sarki--semai--imza_attim--gulen_ertek
N: makam= ussak
N: form= sarki
N: usul= semai = 3/4
M: 3/4
L: 1/16
K: C _2/4B   
Q: 1/4=126
%%MIDI tuningsystem comma53
A4 B4 c4  | d4 d4 z4  | f2e2 d2c2 d2e2  | \
w:  ARANAĞME  |   |   | 
e4 e4 z4  | A4 B4 c4  | d4 d4 z4  | 
w:   |   |   | 
c2d2 e2d2 c2B2  | c2B2 A2G2 ^F2G2  | \
w:   |   | 
A4 B4 c4  | d4 d4 z4  | f2e2 d2c2 d2e2  | 
w:  ARANAĞME  |   |   | 
e4 e4 z4  | A4 B4 c4  | d4 d4 z4  | c2d2 e2d2 c2B2  | \
w:   |   |   |   | 
c2d2 c2B2 A4  | A4 A4 G4  | 
w:   |  Gü ne şin  | 
c8 z4  | c2e6 e2d2  | d8 z4  | e2f2 e2d2 d2c2  | \
w:  le   |  ı şık  yak  |  tın    |  Sev *  da   | 
d2e2 d2c2 c2B2  | c2d2 c2B2 B2A2  | 
w:  do *  lu   |  u fuk *  *  la  | 
A8 z4  | A4 A4 G4  | c8 z4  | c2e6 e2d2  | \
w:  ra    |  Gü ne şin  |  le   |  ı şık  yak  | 
d8 z4  | e2f2 e2d2 d2c2  | d2e2 d2c2 c2B2  | 
w:  tın    |  Sev *  da   |  do *  lu   | 
c2d2 e2f2 e2d2  | d8 z4  | c4 d4 e4  | ^f4 g4 a4  | \
w:  u fuk *  *  la  |  ra    |  Ge ce ler  |  den   | 
g4 a2g2 f2e2  | d2c2 d6z2  | 
w:  yıl dız  *  tak  |  tım    | 
c4 B2A2 G4  | f4 e4 d2c2  | d4 c2B2 A2G2  | \
w:  Mız ra  |  bım *  la   |  şar kı *  la  | 
A8 z4  | A4 B4 c4  | d4 d4 z4  | 
w:  ra    |  ARANAĞME  |   | 
f2e2 d2c2 d2e2  | e4 e4 z4  | A4 B4 c4  | \
w:   |   |   | 
d4 d4 z4  | c2d2 e2d2 c2B2  | 
w:   |   | 
c2B2 A2G2 ^F2G2  | A4 B4 c4  | d4 d4 z4  | \
w:   |  ARANAĞME  |   | 
f2e2 d2c2 d2e2  | e4 e4 z4  | 
w:   |   | 
A4 B4 c4  | d4 d4 z4  | c2d2 e2d2 c2B2  | \
w:   |   |   | 
c2d2 c2B2 A4  | A4 B4 c4  | d4 d4 z4  | 
w:   |  SAZ  |   | 
f2e2 d2c2 d2e2  | d4 d4 z4  | A4 B4 c4  | \
w:   |   |   | 
d4 d4 z4  | B4 B4 c2d2  | B8 z4  | 
w:   |   |   | 
_1/4B4 c4 d4  | _1/4B8 z4  | c4 d4 _7/8e2^f2  | \
w:  Bu gü nü  |  me   |  ya rı nı  | 
d8 z4  | c4 d4 _7/8e4  | g4 ^f4 _7/8e4  | \
w:  ma    |  Se ni  yaz  |  dım   | 
d2_7/8e2 d2c2 c2_1/4B2  | 
w:  her  *  a *  nı  | 
_1/4B8 z4  | _1/4B4 c4 d4  | _1/4B8 z4  | \
w:  ma    |  Bu gü nü  |  me   | 
c4 d4 _7/8e2^f2  | d8 z4  | c4 d4 _7/8e4  | \
w:  ya rı nı  |  ma    |  Se ni  yaz  | 
g4 ^f4 _7/8e4  | d2_7/8e2 d2c2 _1/4B2c2  | 
w:  dım   |  her  *  a *  nı  | 
d8 z4  | d6_7/8e2 ^f4  | g4 a8  | a2g2 ^f2_7/8e2 e2d2  | \
w:  ma    |  Nağ me ler  |  le   |  im *  za  *  at  | 
d8 z4  | c4 _1/4B2A2 G4  | f4 e4 d2c2  | 
w:  tım    |  Mız ra  |  bım *  la   | 
d4 c2_1/4B2 B2A2  | A8 z4  | A4 B4 c4  | \
w:  şar kı *  la  |  ra    |  ARANAĞME  | 
d4 d4 z4  | f2e2 d2c2 d2e2  | e4 e4 z4  | 
w:   |   |   | 
A4 B4 c4  | d4 d4 z4  | c2d2 e2d2 c2B2  | \
w:   |   |   | 
c2B2 A2G2 ^F2G2  | A4 B4 c4  | 
w:   |  ARANAĞME  | 
d4 d4 z4  | f2e2 d2c2 d2e2  | e4 e4 z4  | \
w:   |   |   | 
A4 B4 c4  | d4 d4 z4  | c2d2 e2d2 c2B2  | 
w:   |   |   | 
c2d2 c2B2 A4  | A4 B4 c4  | d4 d4 z4  | \
w:   |  SAZ  |   | 
f2e2 d2c2 d2e2  | d4 d4 z4  | A4 B4 c4  | 
w:   |   |   | 
d4 d4 z4  | G2A2 B2c2 B2A2  | G4 d4 z4  | \
w:   |   |   | 
d4 d4 e2^9/8f2  | g8 z4  | a2_1/4b2 c'4 b2a2  | 
w:  Toz pem be   |  bir   |  dü *  şe  dal  | 
a8 z4  | _1/4b4 b4 b4  | _1/4b4 a4 g4  | \
w:  dım    |  Sa rı lır  |  ken   | 
a4 _1/4b4 a2g2  | g8 z4  | d4 d4 e2^9/8f2  | \
w:  u mut la  |  ra    |  Toz pem be   | 
g8 z4  | a2_1/4b2 c'4 b2a2  | 
w:  bir   |  dü *  şe  dal  | 
a8 z4  | _1/4b4 b4 a4  | g4 ^9/8f2e2 d4  | \
w:  dım    |  Sa rı lır  |  ken   | 
g4 ^9/8f4 e2f2  | d8 z4  | c4 d4 e4  | ^f4 g4 a4  | 
w:  u mut la  |  ra    |  İ ki miz  |  den   | 
g4 a2g2 f2e2  | d2c2 d4 z4  | c4 B2A2 G4  | \
w:  duy gu  *  kat  |  tım    |  Mız ra *  bım  | 
f4 e4 d2c2  | d4 c2B2 B2A2  | 
w:  la   |  şar kı *  la  | 
A8 z4  | c4 d4 e4  | ^f4 g4 a4  | g4 a2g2 f2e2  | \
w:  ra    |  İ ki miz  |  den   |  duy gu  *  kat  | 
d2c2 d4 z4  | c4 B2A2 G4  | 
w:  tım    |  Mız ra *  bım  | 
f4 e4 d2c2  | d4 c2B2 B2A2  | A8 z4  | |


